X: 464
T:Leitrim Jig
T:Charlie Harris' Leitrim Jig
R:jig
S:Charlie Harris, Willie Clancy Summer School 1998
M:6/8
L:1/8
Q:140
N:Posted to the woodenflute mailing list December 2001
Z:Mike Hogan
K:G
dcA G2G|AGF G2B|dcA G2G|Ade f2e|
dcA G2G|AGF G2D|GBd g2g|ded cAF:|
def g2g|agf g2g|def g2g|ded cAF|
def g2g|agf g2a|bag agf|ded cAF:|
<end>
<start>
